X:11
T:When the Battle's O'er
C:W. Robb
M:3/4
Q:1/4=56
K:D
e4
|:{/g}A3/2B/2{/GdG}c2{/ag}a2|{/fg}f1e1{/gcd}c2{/G}A2|{/g}A3/2B/2{/GdG}c2 {/gef}e3/2c/2|{/gBd}B1{/G}A1{/GdG}B4|!
{/g}A3/2B/2{/GdG}c2{/ag}a2|{/fg}f1e1{/gcd}c2{/G}A2|{/g}A3/2B/2{/GdG}c2{/gef}e3/2c/2|{/g}B3/2c/2{/G}A4:|!
|:
{/gef}e3/2c/2{/gBd}B2{/G}A2|{/ag}a3/2g/2{/fg}f2{/g}e2|{/g}A3/2B/2{/GdG}c2{/gef}e3/2c/2|{/gBd}B1{/G}A1{/GdG}B4|!
{/gef}e3/2c/2{/gBd}B2{/G}A2|{/ag}a3/2g/2{/fg}f2{/g}e2|{/g}A3/2B/2{/GdG}c2{/gef}e3/2c/2|{/g}B3/2c/2{/G}A4:|

